packages/ui-solid/icons/globe_24.svg

<svg width="24" height="24" viewBox="0 0 24 24" fill="none" xmlns="http://www.w3.org/2000/svg">
<path fill-rule="evenodd" clip-rule="evenodd" d="M4.2166 9.75001C4.01046 10.4644 3.90001 11.2193 3.90001 12C3.90001 12.7807 4.01046 13.5357 4.2166 14.25H7.62677C7.545 13.5521 7.50001 12.8027 7.50001 12C7.50001 11.1973 7.545 10.4479 7.62677 9.75001H4.2166ZM4.98364 7.95001H7.94019C8.29785 6.43377 8.83928 5.23136 9.43475 4.31463C7.54511 4.94507 5.96535 6.25292 4.98364 7.95001ZM12 4.07649C11.3483 4.61029 10.3774 5.81314 9.7947 7.95001H14.2053C13.6226 5.81314 12.6517 4.61029 12 4.07649ZM14.5608 9.75001H9.43918C9.35052 10.4311 9.30001 11.1795 9.30001 12C9.30001 12.8205 9.35052 13.5689 9.43918 14.25H14.5608C14.6495 13.5689 14.7 12.8205 14.7 12C14.7 11.1795 14.6495 10.4311 14.5608 9.75001ZM16.3732 14.25C16.455 13.5521 16.5 12.8027 16.5 12C16.5 11.1973 16.455 10.4479 16.3732 9.75001H19.7837C19.9895 10.4635 20.1 11.2182 20.1 12C20.1 12.7818 19.9895 13.5365 19.7837 14.25H16.3732ZM14.2053 16.05H9.7947C10.3774 18.1869 11.3483 19.3897 12 19.9235C12.6517 19.3897 13.6226 18.1869 14.2053 16.05ZM9.43475 19.6854C8.83928 18.7687 8.29785 17.5662 7.94019 16.05L4.98364 16.05C5.96535 17.7471 7.54512 19.0549 9.43475 19.6854ZM14.5653 19.6854C15.1607 18.7686 15.7022 17.5662 16.0598 16.05L19.0166 16.05C18.0347 17.7475 16.4546 19.0551 14.5653 19.6854ZM19.0166 7.95001H16.0598C15.7022 6.43378 15.1607 5.23137 14.5653 4.31464C16.4546 4.94495 18.0347 6.25248 19.0166 7.95001ZM2.10001 12C2.10001 6.53239 6.53239 2.10001 12 2.10001C16.25 2.10001 19.8724 4.77767 21.2764 8.53497C21.6799 9.61462 21.9 10.7826 21.9 12C21.9 13.2174 21.6799 14.3854 21.2764 15.465C19.8724 19.2223 16.25 21.9 12 21.9C6.53239 21.9 2.10001 17.4676 2.10001 12Z" fill="#007AFF"/>
</svg>

<svg xmlns="http://www.w3.org/2000/svg" width="24" height="24" fill="none"><path fill="currentColor" fill-rule="evenodd" d="M4.217 9.75A8.1 8.1 0 0 0 3.9 12c0 .78.11 1.536.317 2.25h3.41A19 19 0 0 1 7.5 12q.002-1.204.127-2.25zm.767-1.8H7.94c.358-1.516.9-2.719 1.495-3.635A8.12 8.12 0 0 0 4.984 7.95M12 4.076c-.652.534-1.623 1.737-2.205 3.874h4.41C13.623 5.813 12.652 4.61 12 4.076m2.56 5.674H9.44A17 17 0 0 0 9.3 12c0 .82.05 1.569.14 2.25h5.12c.09-.681.14-1.43.14-2.25s-.05-1.569-.14-2.25m1.813 4.5q.125-1.046.127-2.25c0-.803-.045-1.552-.127-2.25h3.41c.206.713.317 1.468.317 2.25s-.11 1.537-.316 2.25zm-2.168 1.8h-4.41c.582 2.137 1.553 3.34 2.205 3.874.652-.534 1.623-1.737 2.205-3.874m-4.77 3.635c-.596-.916-1.137-2.119-1.495-3.635H4.984a8.12 8.12 0 0 0 4.45 3.635m5.13 0c.596-.916 1.137-2.119 1.495-3.635h2.957a8.12 8.12 0 0 1-4.452 3.635M19.017 7.95H16.06c-.358-1.516-.9-2.719-1.495-3.635a8.12 8.12 0 0 1 4.452 3.635M2.1 12c0-5.468 4.432-9.9 9.9-9.9a9.9 9.9 0 0 1 9.276 6.435A9.9 9.9 0 0 1 21.9 12c0 1.217-.22 2.385-.624 3.465A9.9 9.9 0 0 1 12 21.9c-5.468 0-9.9-4.432-9.9-9.9" clip-rule="evenodd"/></svg>
